assets/icons/actions/bookmark_outline.svg

<svg viewBox="0 0 24 24" xmlns="http://www.w3.org/2000/svg">
<path d="M7 17.95L12 15.8L17 17.95V5H7V17.95ZM6.4 20.4C6.06667 20.5333 5.75 20.504 5.45 20.312C5.15 20.1207 5 19.8417 5 19.475V5C5 4.45 5.196 3.979 5.588 3.587C5.97933 3.19567 6.45 3 7 3H17C17.55 3 18.021 3.19567 18.413 3.587C18.8043 3.979 19 4.45 19 5V19.475C19 19.8417 18.85 20.1207 18.55 20.312C18.25 20.504 17.9333 20.5333 17.6 20.4L12 18L6.4 20.4ZM7 5H17H12H7Z" fill="inherit"/>
</svg>

<svg viewBox="0 0 24 24" xmlns="http://www.w3.org/2000/svg"><path d="m7 18 5-2.2 5 2.1V5H7v13Zm-.6 2.4a1 1 0 0 1-1 0 1 1 0 0 1-.4-1V5c0-.5.2-1 .6-1.4A2 2 0 0 1 7 3h10c.6 0 1 .2 1.4.6.4.4.6.9.6 1.4v14.5c0 .3-.1.6-.4.8a1 1 0 0 1-1 .1L12 18l-5.6 2.4ZM7 5h10H7Z" fill="inherit"/></svg>
